X:1
T:Con amores, la mi madre
T:Juan de Antxieta (1450 - 1523)
T:Con amores, la mi madre
T:(C) Wim Looyestijn - 2015. May be freely copied for non-commercial use.
T:(C) Wim Looyestijn - 2015. May be freely copied for non-commercial use.
C:Juan de Antxieta
Z:(C) Wim Looyestijn - 2015. May be freely copied for non-commercial use.
%%score [ 1 2 3 4 ]
L:1/8
Q:1/4=120
M:5/4
K:F
V:1 treble nm="S" snm="S"
V:2 treble nm="A" snm="A"
V:3 treble-8 nm="T" snm="T"
V:4 bass nm="B" snm="B"
V:1
 x4 A3 B c2- | c2 c2 d4 c2- | c2 c2 B4 A2- | A2 z2 c3 B A2- | AG FE D3 E F2- | FG A4 G2 A2- | %6
w: Con a- mo-|* res * mi|* ma- * dre,|* con a- *|* * * * mo- res- m'a|* * * dor- mí,|
w: Que'l a- mor|* me * con-|* so- la va,|* con más *|* * * * bien que me|* * * re- çí,|
 A2 z2 B4 A2- | AG FE D2 C2 D2- | DE F4 E2 F2- |[Q:1/4=120] F2 z2!fine! :: A3 B c2- | %11
w: * con a-|* * * * mo- res m'a|* * * dor- mí.||A- * sí|
w: * con más|* * * * bien que me|* * * re- çí.||Lo * qu'el|
 c2 c2 d4 c2- | c2 c2 B4 A2- |[Q:1/4=120] A2 z2!D.C.! :| %14
w: * dor- mi- da|* so- ña- va.||
w: * co- ra- çón|* ve- la- va.||
V:2
 x4 A3 G/F/ E2- | ED C2 F3 G A2- | AG EF G4 C2- | C2 z2 C4 C2 | F,4 F,2 F2 F2- | F2 F2 D2 D2 D2- | %6
w: Con a- * mo-|* * * res * mi|* * ma- * * dre,|* con a-|mo- res- con a-|* mo- res- m'a dor-|
w: Que'l a- * mor|* * * me * con-|* * so- * la va,|* con más|bien que * más|* bien que me re-|
 D2 E2 F4 F2 | F4 F2 F3 E | DC B,A, C2 C2 C2- | C2 z2 :: A3 G/F/ E2- | ED C2 F3 G A2- | %12
w: * mí, con a-|mo- res m'a *|* * * * * dor- mí.||A- * * sí|* * dor- mi- * da|
w: * çí, con más|bien que me *|* * * * * re- çí.||Lo * * qu'el|* * co- ra- * çón|
 AG EF G2 G2 C2- | C2 z2 :| %14
w: * * so- * * ña- va.||
w: * * ve- * * la- va.||
V:3
 x4 f3 e/d/ c2- | cd e2 d3 e f2- | fe c2 d2 e2 f2- | f2 z2 F3 G A2- | A2 A2 B4 A2 | d2 c2 B4 A2- | %6
w: Con a- * mo-|* * * res * mi|* * ma- * * dre,|* con a- *|* mo- res- m'a|* * dor- mí,|
w: Que'l a- * mor|* * * me * con-|* * so- la * va,|* con más *|* bien que me|* * re- çí,|
 AB c2 d4 c2 | A4 B2 A2 B2- | BA GF G4 F2- | F2 z2 :: f3 e/d/ c2- | cd e2 d3 e f2- | %12
w: * * * con a-|mo- res m'a *|* * * * dor- mí.||A- * * sí|* * dor- mi- * da|
w: * * * con más|bien que me *|* * * * re- çí.||Lo * * qu'el|* * co- ra- * çón|
 fe c2 d2 e2 f2- | f2 z2 :| %14
w: * * so- ña- * va.||
w: * * ve- la- * va.||
V:4
 x4 F,3 G, A,2- | A,2 A,2 B,3 A, F,2- | F,G, A,2 G,4 F,2- | F,2 z2 A,3 G, F,2- | %4
w: Con a- mo-|* * res * mi|* * ma- * dre,|* con a- *|
w: Que'l a- mor|* * me * con-|* * so- la va,|* con más *|
 F,E, D,C, B,,3 C, D,2- | D,E, F,2 G,4 D,2- | D,2 C,2 B,,4 F,2- | F,E, D,C, B,,2 F,2 B,,2- | %8
w: * * * * mo- res- m'a|* * * dor- mí,|* * con a-|* * * * mo- res m'a|
w: * * * * bien que me|* * * re- çí,|* * con más|* * * * bien que me|
 B,,C, D,2 C,4 F,2- | F,2 z2 :: F,3 G, A,2- | A,2 A,2 B,3 A, F,2- | F,G, A,2 G,4 F,2- | F,2 z2 :| %14
w: * * * dor- mí.||A- * sí|* dor- mi- * da|* * so- ña- va.||
w: * * * re- çí.||Lo * qu'el|* co- ra- * çón|* * ve- la- va.||

